images/caht-img-q.svg

<svg width="55" height="55" viewBox="0 0 55 55" fill="none" xmlns="http://www.w3.org/2000/svg">
<path d="M0.0344793 51.9429C-0.424841 51.3783 3.85679 39.2985 3.85679 39.2985C0.55327 33.9109 -0.641795 27.5308 0.493799 21.3444C1.62939 15.158 5.01837 9.58624 10.0306 5.66518C15.0429 1.74412 21.3373 -0.259461 27.7436 0.0269596C34.1499 0.31338 40.2321 2.87031 44.8593 7.22235C49.4865 11.5744 52.3439 17.4254 52.9002 23.6874C53.4565 29.9495 51.6738 36.1964 47.8836 41.2669C44.0934 46.3373 38.5536 49.8861 32.2942 51.2534C26.0348 52.6208 19.4818 51.7137 13.8536 48.7007C13.8536 48.7007 0.493799 52.5075 0.0344793 51.9429Z" fill="white"/>
<path d="M23.6565 32.5105V32.3384C23.678 30.5124 23.8934 29.0593 24.3027 27.979C24.712 26.8987 25.2937 26.0239 26.0476 25.3547C26.8016 24.6855 27.7063 24.0688 28.7619 23.5048C29.3974 23.1606 29.9683 22.7543 30.4745 22.2859C30.9807 21.8078 31.3793 21.2581 31.6701 20.6367C31.9717 20.0153 32.1224 19.327 32.1224 18.5717C32.1224 17.6348 31.8747 16.8222 31.3793 16.1338C30.8838 15.4455 30.2214 14.9149 29.392 14.5421C28.5626 14.1692 27.6417 13.9828 26.6293 13.9828C25.746 13.9828 24.8951 14.1453 24.0765 14.4704C23.2579 14.7954 22.574 15.3069 22.0247 16.0048C21.4753 16.7027 21.1576 17.6157 21.0714 18.7438H17C17.0862 17.1185 17.5601 15.7275 18.4218 14.5707C19.2942 13.414 20.4413 12.5296 21.8631 11.9178C23.2956 11.3059 24.8844 11 26.6293 11C28.5249 11 30.1729 11.3346 31.5731 12.0038C32.9841 12.673 34.072 13.5908 34.8367 14.7572C35.6122 15.9235 36 17.2524 36 18.7438C36 19.7954 35.8169 20.7467 35.4507 21.5975C35.0952 22.4484 34.5782 23.2084 33.8997 23.8776C33.2319 24.5468 32.424 25.1396 31.4762 25.6558C30.5283 26.1816 29.769 26.7361 29.1981 27.3193C28.6273 27.8929 28.2126 28.5765 27.9541 29.37C27.6956 30.1635 27.5556 31.153 27.534 32.3384V32.5105H23.6565ZM25.7245 41C24.9274 41 24.2435 40.7467 23.6726 40.24C23.1018 39.7333 22.8163 39.1262 22.8163 38.4187C22.8163 37.7113 23.1018 37.1042 23.6726 36.5975C24.2435 36.0908 24.9274 35.8375 25.7245 35.8375C26.5215 35.8375 27.2055 36.0908 27.7764 36.5975C28.3472 37.1042 28.6327 37.7113 28.6327 38.4187C28.6327 38.8872 28.498 39.3174 28.2287 39.7094C27.9702 40.1013 27.6202 40.4168 27.1786 40.6558C26.7477 40.8853 26.263 41 25.7245 41Z" fill="#17633D"/>
</svg>

<svg xmlns="http://www.w3.org/2000/svg" width="55" height="55" fill="none"><path fill="#fff" d="M.034 51.943c-.459-.565 3.823-12.645 3.823-12.645A25.505 25.505 0 0 1 .494 21.344C1.629 15.158 5.018 9.586 10.03 5.665 15.043 1.745 21.337-.259 27.744.027 34.15.313 40.232 2.87 44.859 7.222c4.627 4.352 7.485 10.203 8.041 16.465.556 6.262-1.226 12.51-5.016 17.58-3.79 5.07-9.33 8.62-15.59 9.986a26.933 26.933 0 0 1-18.44-2.552S.494 52.507.034 51.943Z"/><path fill="#17633D" d="M23.657 32.51v-.172c.021-1.826.236-3.279.646-4.359.409-1.08.99-1.955 1.745-2.624.754-.67 1.658-1.286 2.714-1.85a8.393 8.393 0 0 0 1.712-1.22 5.399 5.399 0 0 0 1.196-1.648c.302-.622.452-1.31.452-2.065 0-.937-.247-1.75-.743-2.438-.495-.689-1.158-1.22-1.987-1.592-.83-.373-1.75-.56-2.763-.56-.883 0-1.734.163-2.553.488a4.844 4.844 0 0 0-2.051 1.535c-.55.698-.867 1.61-.954 2.739H17c.086-1.625.56-3.017 1.422-4.173.872-1.157 2.02-2.041 3.441-2.653 1.433-.612 3.021-.918 4.766-.918 1.896 0 3.544.335 4.944 1.004 1.411.669 2.499 1.587 3.264 2.753.775 1.167 1.163 2.495 1.163 3.987 0 1.051-.183 2.003-.55 2.854a6.933 6.933 0 0 1-1.55 2.28c-.668.669-1.476 1.262-2.424 1.778-.948.526-1.707 1.08-2.278 1.663a5.103 5.103 0 0 0-1.244 2.051c-.258.793-.398 1.783-.42 2.968v.172h-3.877ZM25.724 41c-.797 0-1.48-.253-2.051-.76-.571-.507-.857-1.114-.857-1.821 0-.708.286-1.315.857-1.822.57-.506 1.254-.76 2.052-.76.796 0 1.48.254 2.051.76.571.507.857 1.114.857 1.822 0 .468-.135.898-.404 1.29a2.864 2.864 0 0 1-1.05.947c-.431.23-.916.344-1.454.344Z"/></svg>
